;FLAVOR:Marlin
;TIME:8199
;Filament used: 15.4365m
;Layer height: 0.32
;MINX:43
;MINY:60.527
;MINZ:0.32
;MAXX:176.999
;MAXY:159.527
;MAXZ:15.04
;Generated with Cura_SteamEngine 5.2.1
M82 ;absolute extrusion mode
; Ender 3 Custom Start G-code
G92 E0 ; Reset Extruder
G28 ; Home all axes
M104 S175 ; Start heating up the nozzle most of the way
M190 S60 ; Start heating the bed, wait until target temperature reached
M109 S200 ; Finish heating the nozzle
G1 Z2.0 F3000 ; Move Z Axis up little to prevent scratching of Heat Bed
G1 X0.1 Y20 Z0.3 F5000.0 ; Move to start position
G1 X0.1 Y200.0 Z0.3 F1500.0 E15 ; Draw the first line
G1 X0.4 Y200.0 Z0.3 F5000.0 ; Move to side a little
G1 X0.4 Y20 Z0.3 F1500.0 E30 ; Draw the second line
G92 E0 ; Reset Extruder
G1 Z2.0 F3000 ; Move Z Axis up little to prevent scratching of Heat Bed
G1 X5 Y20 Z0.3 F5000.0 ; Move over to prevent blob squish
G92 E0
G92 E0
G1 F1500 E-6.5
;LAYER_COUNT:47
;LAYER:0
M107
G0 F6000 X54.889 Y67.649 Z0.32
;TYPE:SKIRT
G1 F1500 E0
G1 F1200 X55.364 Y67.272 E0.06454
G1 X56.12 Y66.702 E0.16531
G1 X56.562 Y66.384 E0.22327
G1 X57.216 Y65.936 E0.30764
G1 X58.046 Y65.416 E0.41188
G1 X58.916 Y64.965 E0.51618
G1 X59.38 Y64.76 E0.57017
G1 X60.392 Y64.338 E0.68687
G1 X62.747 Y63.315 E0.96015
G1 X64.887 Y62.316 E1.21151
G1 X65.79 Y61.938 E1.3157
G1 X67.032 Y61.553 E1.45409
G1 X67.869 Y61.35 E1.54576
G1 X68.947 Y61.119 E1.6631
G1 X69.712 Y60.977 E1.74591
G1 X70.257 Y60.895 E1.80457
G1 X71.625 Y60.721 E1.95134
G1 X72.376 Y60.644 E2.03169
G1 X72.981 Y60.604 E2.09622
G1 X74.291 Y60.549 E2.23577
G1 X74.991 Y60.54 E2.31028
G1 X76.149 Y60.559 E2.43354
G1 X78.808 Y60.575 E2.71655
G1 X81.102 Y60.529 E2.96076
G1 X85.125 Y60.528 E3.38894
G1 X87.4 Y60.567 E3.63111
G1 X89.914 Y60.571 E3.89868
G1 X91.995 Y60.527 E4.12021
G1 X96.125 Y60.528 E4.55978
G1 X98.4 Y60.567 E4.80195
G1 X100.914 Y60.571 E5.06952
G1 X102.995 Y60.527 E5.29105
G1 X107.125 Y60.528 E5.73062
G1 X109.4 Y60.567 E5.97279
G1 X111.914 Y60.571 E6.24036
G1 X113.995 Y60.527 E6.4619
G1 X118.125 Y60.528 E6.90146
G1 X120.4 Y60.567 E7.14363
G1 X122.914 Y60.571 E7.4112
G1 X124.995 Y60.527 E7.63274
G1 X129.125 Y60.528 E8.07231
G1 X131.4 Y60.567 E8.31447
G1 X133.914 Y60.571 E8.58205
G1 X135.995 Y60.527 E8.80358
G1 X139.466 Y60.528 E9.17301
G1 X141.143 Y60.553 E9.35152
G1 X142.276 Y60.584 E9.47215
G1 X144.807 Y60.582 E9.74153
G1 X145.826 Y60.563 E9.85
G1 X147.132 Y60.61 E9.98909
G1 X148.326 Y60.718 E10.11669
G1 X148.809 Y60.771 E10.16841
G1 X149.76 Y60.896 E10.2705
G1 X150.543 Y61.019 E10.35485
G1 X151.106 Y61.127 E10.41587
G1 X152.288 Y61.382 E10.54457
G1 X152.887 Y61.525 E10.61011
G1 X153.827 Y61.799 E10.71432
G1 X155.149 Y62.333 E10.86607
G1 X155.691 Y62.591 E10.92996
G1 X158.005 Y63.649 E11.20076
G1 X159.615 Y64.34 E11.38724
G1 X160.63 Y64.765 E11.50435
G1 X161.517 Y65.18 E11.60858
G1 X162.69 Y65.875 E11.75369
G1 X163.105 Y66.154 E11.80692
G1 X163.96 Y66.76 E11.91846
G1 X164.437 Y67.119 E11.982
G1 X165.342 Y67.837 E12.10495
G1 X165.849 Y68.263 E12.17543
G1 X166.604 Y68.933 E12.28287
G1 X167.027 Y69.326 E12.34432
G1 X167.69 Y69.974 E12.44299
G1 X168.062 Y70.355 E12.49966
G1 X168.575 Y70.903 E12.57956
G1 X169.004 Y71.379 E12.64776
G1 X169.846 Y72.375 E12.78657
G1 X170.212 Y72.835 E12.84913
G1 X170.795 Y73.605 E12.95193
G1 X171.137 Y74.081 E13.01431
G1 X171.695 Y74.898 E13.11961
G1 X171.99 Y75.35 E13.17706
G1 X172.401 Y76.014 E13.26017
G1 X172.665 Y76.464 E13.3157
G1 X173.143 Y77.317 E13.41977
G1 X173.42 Y77.84 E13.48276
G1 X173.868 Y78.741 E13.58986
G1 X174.13 Y79.304 E13.65595
G1 X174.52 Y80.202 E13.76015
G1 X174.727 Y80.71 E13.81853
G1 X175.076 Y81.626 E13.92286
G1 X175.28 Y82.206 E13.9883
G1 X175.592 Y83.171 E14.09624
G1 X175.762 Y83.745 E14.15996
G1 X176.009 Y84.663 E14.26114
G1 X176.146 Y85.229 E14.32312
G1 X176.363 Y86.226 E14.43171
G1 X176.474 Y86.801 E14.49404
G1 X176.627 Y87.717 E14.59289
G1 X176.721 Y88.365 E14.66258
G1 X176.866 Y89.705 E14.80603
G1 X176.908 Y90.216 E14.8606
G1 X176.966 Y91.235 E14.96923
G1 X176.985 Y91.883 E15.03823
G1 X176.999 Y93.118 E15.16968
G1 X176.999 Y127.055 E18.78168
G1 X176.986 Y128.109 E18.89386
G1 X176.934 Y129.421 E19.03361
G1 X176.895 Y129.999 E19.09527
G1 X176.804 Y130.983 E19.20045
G1 X176.742 Y131.518 E19.25777
G1 X176.638 Y132.272 E19.33878
G1 X176.549 Y132.837 E19.39966
G1 X176.298 Y134.149 E19.54183
G1 X176.17 Y134.726 E19.60473
G1 X175.933 Y135.683 E19.70966
G1 X175.779 Y136.245 E19.77168
G1 X175.489 Y137.212 E19.87913
G1 X175.323 Y137.726 E19.93662
G1 X175.073 Y138.441 E20.01724
G1 X174.87 Y138.978 E20.07834
G1 X174.424 Y140.081 E20.20497
G1 X174.155 Y140.697 E20.27651
G1 X173.723 Y141.614 E20.3844
G1 X173.488 Y142.084 E20.44032
G1 X173.141 Y142.744 E20.51969
G1 X172.878 Y143.219 E20.57747
G1 X172.351 Y144.12 E20.68857
G1 X172.05 Y144.607 E20.7495
G1 X171.337 Y145.692 E20.88768
G1 X171.002 Y146.163 E20.9492
G1 X170.407 Y146.966 E21.05557
G1 X170.044 Y147.431 E21.11836
G1 X169.411 Y148.203 E21.22461
G1 X169.073 Y148.598 E21.27994
G1 X168.603 Y149.123 E21.35494
G1 X168.189 Y149.569 E21.41971
G1 X167.414 Y150.355 E21.53719
G1 X167.024 Y150.73 E21.59478
G1 X166.309 Y151.387 E21.69812
G1 X165.895 Y151.751 E21.7568
G1 X165.175 Y152.354 E21.85675
G1 X164.719 Y152.717 E21.91878
G1 X163.905 Y153.334 E22.0275
G1 X163.438 Y153.671 E22.08879
G1 X162.784 Y154.119 E22.17316
G1 X161.954 Y154.639 E22.27741
G1 X161.084 Y155.09 E22.38171
G1 X160.621 Y155.294 E22.43555
G1 X159.622 Y155.71 E22.55073
G1 X157.235 Y156.748 E22.82777
G1 X155.11 Y157.739 E23.07732
G1 X154.206 Y158.116 E23.18157
G1 X153.021 Y158.487 E23.31373
G1 X152.117 Y158.71 E23.41283
G1 X151.141 Y158.92 E23.51908
G1 X150.469 Y159.048 E23.59189
G1 X149.881 Y159.139 E23.65522
G1 X148.669 Y159.297 E23.7853
G1 X148.195 Y159.35 E23.83607
G1 X147.285 Y159.432 E23.93331
G1 X146.65 Y159.474 E24.00105
G1 X145.839 Y159.491 E24.08738
G1 X143.466 Y159.461 E24.33997
G1 X140.77 Y159.501 E24.62694
G1 X139.697 Y159.527 E24.74117
G1 X136.195 Y159.526 E25.1139
G1 X133.92 Y159.487 E25.35607
G1 X131.406 Y159.483 E25.62364
G1 X129.325 Y159.527 E25.84518
G1 X125.195 Y159.526 E26.28474
G1 X122.92 Y159.487 E26.52691
G1 X120.406 Y159.483 E26.79448
G1 X118.325 Y159.527 E27.01602
G1 X114.195 Y159.526 E27.45559
G1 X111.92 Y159.487 E27.69775
G1 X109.406 Y159.483 E27.96533
G1 X107.325 Y159.527 E28.18686
G1 X103.195 Y159.526 E28.62643
G1 X100.92 Y159.487 E28.8686
G1 X98.406 Y159.483 E29.13617
G1 X96.325 Y159.527 E29.3577
G1 X92.195 Y159.526 E29.79727
G1 X89.92 Y159.487 E30.03944
G1 X87.406 Y159.483 E30.30701
G1 X85.325 Y159.527 E30.52855
G1 X81.535 Y159.526 E30.93192
G1 X79.26 Y159.487 E31.17409
G1 X76.724 Y159.483 E31.44401
G1 X75.227 Y159.512 E31.60337
G1 X74.406 Y159.51 E31.69075
G1 X73.645 Y159.49 E31.77177
G1 X73.041 Y159.454 E31.83617
G1 X71.637 Y159.335 E31.98614
G1 X70.942 Y159.26 E32.06054
G1 X70.315 Y159.17 E32.12795
G1 X68.996 Y158.945 E32.27037
G1 X68.165 Y158.782 E32.3605
G1 X67.634 Y158.661 E32.41846
G1 X67.067 Y158.518 E32.4807
G1 X66.128 Y158.24 E32.58493
G1 X64.838 Y157.714 E32.7332
G1 X64.466 Y157.536 E32.77709
G1 X62.068 Y156.438 E33.0578
G1 X60.397 Y155.72 E33.25137
G1 X59.372 Y155.291 E33.36963
G1 X58.485 Y154.876 E33.47386
G1 X57.31 Y154.18 E33.61921
G1 X56.557 Y153.665 E33.71631
G1 X55.852 Y153.155 E33.80892
G1 X55.37 Y152.788 E33.87339
G1 X54.572 Y152.147 E33.98234
G1 X54.111 Y151.756 E34.04667
G1 X53.386 Y151.111 E34.14995
G1 X53.011 Y150.763 E34.2044
G1 X52.428 Y150.198 E34.29081
G1 X52.056 Y149.822 E34.34711
G1 X51.196 Y148.902 E34.48114
G1 X50.77 Y148.415 E34.55001
G1 X50.183 Y147.715 E34.64724
G1 X49.844 Y147.291 E34.70502
G1 X49.361 Y146.659 E34.78968
G1 X49.063 Y146.252 E34.84336
G1 X48.492 Y145.436 E34.94936
G1 X48.155 Y144.928 E35.01425
G1 X47.623 Y144.079 E35.12088
G1 X47.318 Y143.563 E35.18468
G1 X46.84 Y142.708 E35.28893
G1 X46.563 Y142.183 E35.35211
G1 X46.14 Y141.33 E35.45345
G1 X45.893 Y140.8 E35.51568
G1 X45.347 Y139.535 E35.66233
G1 X45.137 Y138.998 E35.7237
G1 X44.809 Y138.106 E35.82485
G1 X44.611 Y137.522 E35.89048
G1 X44.3 Y136.52 E36.00214
G1 X44.14 Y135.956 E36.06454
G1 X43.902 Y135.032 E36.16609
G1 X43.781 Y134.516 E36.2225
G1 X43.615 Y133.729 E36.30811
G1 X43.518 Y133.212 E36.36409
G1 X43.37 Y132.318 E36.46054
G1 X43.239 Y131.357 E36.56377
G1 X43.153 Y130.566 E36.64845
G1 X43.108 Y130.041 E36.70453
G1 X43.05 Y129.141 E36.80052
G1 X43.021 Y128.492 E36.86966
G1 X43 Y126.92 E37.03699
G1 X43.001 Y93.003 E40.64686
G1 X43.024 Y91.566 E40.79982
G1 X43.065 Y90.63 E40.89954
G1 X43.1 Y90.11 E40.95501
G1 X43.169 Y89.321 E41.03931
G1 X43.229 Y88.777 E41.09756
G1 X43.353 Y87.849 E41.1972
G1 X43.45 Y87.224 E41.26452
G1 X43.52 Y86.833 E41.3068
G1 X43.712 Y85.86 E41.41235
G1 X43.82 Y85.367 E41.46607
G1 X43.995 Y84.642 E41.54545
G1 X44.128 Y84.139 E41.60082
G1 X44.504 Y82.858 E41.74291
G1 X44.711 Y82.236 E41.81268
G1 X45.028 Y81.344 E41.91344
G1 X45.211 Y80.862 E41.96831
G1 X45.48 Y80.197 E42.04466
G1 X45.713 Y79.651 E42.10784
G1 X46.263 Y78.47 E42.2465
G1 X46.535 Y77.926 E42.31124
G1 X47 Y77.054 E42.41642
G1 X47.288 Y76.545 E42.47866
G1 X47.809 Y75.673 E42.58677
G1 X48.084 Y75.234 E42.64191
G1 X48.474 Y74.641 E42.71745
G1 X48.782 Y74.195 E42.77514
G1 X49.4 Y73.342 E42.88725
G1 X49.768 Y72.86 E42.95179
G1 X50.369 Y72.113 E43.05383
G1 X50.732 Y71.683 E43.11373
G1 X51.362 Y70.971 E43.21491
G1 X51.794 Y70.503 E43.2827
G1 X52.687 Y69.602 E43.41772
G1 X53.057 Y69.247 E43.47229
G1 X53.654 Y68.699 E43.55854
G1 X54.07 Y68.334 E43.61744
G1 X54.889 Y67.649 E43.73108
G0 F6000 X55.402 Y68.263
G1 F1200 X55.845 Y67.911 E43.7913
G1 X56.601 Y67.341 E43.89207
G1 X57.014 Y67.044 E43.94622
G1 X57.668 Y66.596 E44.03059
G1 X58.471 Y66.095 E44.13132
G1 X59.688 Y65.499 E44.27555
G1 X60.688 Y65.082 E44.39087
G1 X63.062 Y64.051 E44.66634
G1 X65.225 Y63.041 E44.92041
G1 X66.099 Y62.677 E45.02118
G1 X67.227 Y62.329 E45.14682
G1 X68.036 Y62.133 E45.23541
G1 X69.114 Y61.902 E45.35275
G1 X69.849 Y61.765 E45.43232
G1 X70.358 Y61.689 E45.4871
G1 X71.726 Y61.515 E45.63387
G1 X72.45 Y61.441 E45.71133
G1 X73.014 Y61.403 E45.77149
G1 X74.324 Y61.348 E45.91104
G1 X74.978 Y61.34 E45.98066
G1 X76.139 Y61.359 E46.10424
G1 X78.819 Y61.375 E46.38948
G1 X81.118 Y61.329 E46.63422
G1 X85.113 Y61.328 E47.05942
G1 X86.859 Y61.353 E47.24527
G1 X87.375 Y61.367 E47.30021
G1 X89.931 Y61.371 E47.57225
G1 X91.995 Y61.327 E47.79198
G1 X96.113 Y61.328 E48.23027
G1 X97.859 Y61.353 E48.41612
G1 X98.375 Y61.367 E48.47105
G1 X100.931 Y61.371 E48.7431
G1 X102.995 Y61.327 E48.96282
G1 X107.113 Y61.328 E49.40111
G1 X108.859 Y61.353 E49.58696
G1 X109.375 Y61.367 E49.6419
G1 X111.931 Y61.371 E49.91394
G1 X113.995 Y61.327 E50.13367
G1 X118.113 Y61.328 E50.57196
G1 X119.859 Y61.353 E50.75781
G1 X120.375 Y61.367 E50.81275
G1 X122.931 Y61.371 E51.08479
G1 X124.995 Y61.327 E51.30452
G1 X129.113 Y61.328 E51.7428
G1 X130.859 Y61.353 E51.92865
G1 X131.375 Y61.367 E51.98359
G1 X133.931 Y61.371 E52.25564
G1 X135.995 Y61.327 E52.47536
G1 X139.455 Y61.328 E52.84362
G1 X141.121 Y61.353 E53.02095
G1 X142.255 Y61.384 E53.14169
G1 X144.822 Y61.382 E53.41491
G1 X145.841 Y61.363 E53.52338
G1 X147.06 Y61.407 E53.6532
G1 X148.254 Y61.515 E53.7808
G1 X148.705 Y61.565 E53.8291
G1 X149.656 Y61.69 E53.93119
G1 X150.412 Y61.809 E54.01264
G1 X150.937 Y61.909 E54.06952
G1 X152.119 Y62.164 E54.19822
G1 X152.694 Y62.301 E54.26113
G1 X153.602 Y62.567 E54.36183
G1 X154.805 Y63.056 E54.50005
G1 X155.289 Y63.286 E54.55708
G1 X157.682 Y64.381 E54.83717
G1 X159.365 Y65.103 E55.03208
G1 X160.321 Y65.503 E55.14238
G1 X161.177 Y65.905 E55.24303
G1 X162.244 Y66.539 E55.37513
G1 X162.659 Y66.818 E55.42835
G1 X163.495 Y67.411 E55.53744
G1 X163.94 Y67.746 E55.59673
G1 X164.845 Y68.464 E55.71968
G1 X165.318 Y68.861 E55.7854
G1 X166.073 Y69.531 E55.89284
G1 X166.467 Y69.898 E55.95015
G1 X167.13 Y70.546 E56.04882
G1 X167.478 Y70.902 E56.1018
G1 X168.179 Y71.655 E56.2113
G1 X168.63 Y72.17 E56.28416
G1 X169.232 Y72.889 E56.38397
G1 X169.574 Y73.318 E56.44236
G1 X170.157 Y74.088 E56.54515
G1 X170.477 Y74.532 E56.6034
G1 X171.035 Y75.349 E56.70871
G1 X171.309 Y75.771 E56.76226
G1 X171.72 Y76.435 E56.84537
G1 X171.968 Y76.855 E56.89728
G1 X172.446 Y77.708 E57.00135
G1 X172.704 Y78.196 E57.0601
G1 X173.152 Y79.097 E57.1672
G1 X173.396 Y79.622 E57.22882
G1 X173.786 Y80.52 E57.33302
G1 X173.979 Y80.994 E57.38749
G1 X174.328 Y81.91 E57.49182
G1 X174.519 Y82.452 E57.55298
G1 X174.831 Y83.417 E57.66092
G1 X174.989 Y83.953 E57.7204
G1 X175.236 Y84.871 E57.82158
G1 X175.365 Y85.399 E57.87943
G1 X175.582 Y86.396 E57.98802
G1 X175.685 Y86.933 E58.04622
G1 X175.838 Y87.849 E58.14506
G1 X175.928 Y88.473 E58.21216
G1 X176.07 Y89.787 E58.35283
G1 X176.109 Y90.264 E58.40377
G1 X176.166 Y91.263 E58.51027
G1 X176.185 Y91.893 E58.57735
G1 X176.199 Y93.118 E58.70774
G1 X176.199 Y127.045 E62.31867
G1 X176.186 Y128.099 E62.43086
G1 X176.135 Y129.386 E62.56795
G1 X176.098 Y129.925 E62.62545
G1 X176.007 Y130.909 E62.73062
G1 X175.95 Y131.408 E62.78408
G1 X175.846 Y132.162 E62.86509
G1 X175.76 Y132.707 E62.92381
G1 X175.513 Y133.995 E63.0634
G1 X175.394 Y134.533 E63.12204
G1 X175.157 Y135.49 E63.22697
G1 X175.013 Y136.015 E63.28491
G1 X174.723 Y136.982 E63.39236
G1 X174.567 Y137.462 E63.44608
G1 X174.317 Y138.177 E63.5267
G1 X174.128 Y138.678 E63.58369
G1 X173.682 Y139.781 E63.71032
G1 X173.431 Y140.356 E63.77709
G1 X172.999 Y141.273 E63.88498
G1 X172.78 Y141.712 E63.93719
G1 X172.433 Y142.372 E64.01656
G1 X172.188 Y142.815 E64.07044
G1 X171.661 Y143.716 E64.18153
G1 X171.38 Y144.171 E64.23845
G1 X170.681 Y145.233 E64.37377
G1 X170.359 Y145.687 E64.43301
G1 X169.764 Y146.49 E64.53938
G1 X169.426 Y146.923 E64.59784
G1 X168.793 Y147.695 E64.70409
G1 X168.477 Y148.064 E64.7558
G1 X168.007 Y148.589 E64.8308
G1 X167.606 Y149.021 E64.89353
G1 X166.847 Y149.791 E65.00861
G1 X166.483 Y150.141 E65.06235
G1 X165.768 Y150.798 E65.1657
G1 X165.381 Y151.137 E65.22046
G1 X164.661 Y151.74 E65.32041
G1 X164.236 Y152.08 E65.37834
G1 X163.422 Y152.697 E65.48705
G1 X162.986 Y153.011 E65.54424
G1 X162.332 Y153.459 E65.62861
G1 X161.529 Y153.96 E65.72935
G1 X160.313 Y154.556 E65.87348
G1 X159.27 Y154.991 E65.99375
G1 X156.921 Y156.012 E66.26636
G1 X154.772 Y157.014 E66.51872
G1 X153.898 Y157.377 E66.61945
G1 X152.822 Y157.712 E66.73939
G1 X151.949 Y157.927 E66.83508
G1 X150.973 Y158.137 E66.94134
G1 X150.327 Y158.261 E67.01135
G1 X149.778 Y158.346 E67.07048
G1 X148.566 Y158.504 E67.20057
G1 X148.123 Y158.553 E67.248
G1 X147.213 Y158.635 E67.34525
G1 X146.606 Y158.675 E67.40999
G1 X145.849 Y158.691 E67.49058
G1 X143.465 Y158.661 E67.74434
G1 X140.735 Y158.701 E68.03493
G1 X139.697 Y158.727 E68.14544
G1 X136.207 Y158.726 E68.51689
G1 X134.461 Y158.701 E68.70274
G1 X133.945 Y158.687 E68.75768
G1 X131.389 Y158.683 E69.02972
G1 X129.325 Y158.727 E69.24945
G1 X125.207 Y158.726 E69.68773
G1 X123.461 Y158.701 E69.87358
G1 X122.945 Y158.687 E69.92852
G1 X120.389 Y158.683 E70.20057
G1 X118.325 Y158.727 E70.42029
G1 X114.207 Y158.726 E70.85858
G1 X112.461 Y158.701 E71.04443
G1 X111.945 Y158.687 E71.09937
G1 X109.389 Y158.683 E71.37141
G1 X107.325 Y158.727 E71.59114
G1 X103.207 Y158.726 E72.02943
G1 X101.461 Y158.701 E72.21528
G1 X100.945 Y158.687 E72.27022
G1 X98.389 Y158.683 E72.54226
G1 X96.325 Y158.727 E72.76198
G1 X92.207 Y158.726 E73.20027
G1 X90.461 Y158.701 E73.38612
G1 X89.945 Y158.687 E73.44106
G1 X87.389 Y158.683 E73.7131
G1 X85.325 Y158.727 E73.93283
G1 X81.547 Y158.726 E74.33493
G1 X79.801 Y158.701 E74.52078
G1 X79.285 Y158.687 E74.57572
G1 X76.708 Y158.683 E74.85
G1 X75.229 Y158.712 E75.00744
G1 X74.408 Y158.71 E75.09482
G1 X73.672 Y158.69 E75.17319
