;FLAVOR:Marlin
;TIME:20564
;Filament used: 49.915m
;Layer height: 0.32
;MINX:32.656
;MINY:42.551
;MINZ:0.32
;MAXX:187.344
;MAXY:177.449
;MAXZ:31.04
;Generated with Cura_SteamEngine 5.2.1
M82 ;absolute extrusion mode
; Ender 3 Custom Start G-code
G92 E0 ; Reset Extruder
G28 ; Home all axes
M104 S175 ; Start heating up the nozzle most of the way
M190 S60 ; Start heating the bed, wait until target temperature reached
M109 S200 ; Finish heating the nozzle
G1 Z2.0 F3000 ; Move Z Axis up little to prevent scratching of Heat Bed
G1 X0.1 Y20 Z0.3 F5000.0 ; Move to start position
G1 X0.1 Y200.0 Z0.3 F1500.0 E15 ; Draw the first line
G1 X0.4 Y200.0 Z0.3 F5000.0 ; Move to side a little
G1 X0.4 Y20 Z0.3 F1500.0 E30 ; Draw the second line
G92 E0 ; Reset Extruder
G1 Z2.0 F3000 ; Move Z Axis up little to prevent scratching of Heat Bed
G1 X5 Y20 Z0.3 F5000.0 ; Move over to prevent blob squish
G92 E0
G92 E0
G1 F1500 E-6.5
;LAYER_COUNT:97
;LAYER:0
M107
G0 F6000 X37.317 Y45.073 Z0.32
;TYPE:SKIRT
G1 F1500 E0
G1 F1200 X38.115 Y44.505 E0.10425
G1 X38.957 Y44.005 E0.20848
G1 X39.837 Y43.574 E0.31277
G1 X40.749 Y43.217 E0.41701
G1 X41.687 Y42.935 E0.52125
G1 X42.645 Y42.731 E0.6255
G1 X43.617 Y42.606 E0.72981
G1 X44.329 Y42.565 E0.80571
G1 X44.986 Y42.551 E0.87565
G1 X174.809 Y42.552 E14.69303
G1 X175.507 Y42.562 E14.76733
G1 X176.485 Y42.616 E14.87158
G1 X177.455 Y42.75 E14.9758
G1 X178.412 Y42.962 E15.08012
G1 X179.348 Y43.252 E15.18442
G1 X180.257 Y43.617 E15.28867
G1 X181.133 Y44.055 E15.39291
G1 X181.971 Y44.563 E15.49721
G1 X182.764 Y45.137 E15.6014
G1 X183.508 Y45.774 E15.70564
G1 X184.197 Y46.47 E15.80988
G1 X184.828 Y47.22 E15.9142
G1 X185.395 Y48.019 E16.01847
G1 X185.895 Y48.861 E16.1227
G1 X186.325 Y49.741 E16.22694
G1 X186.681 Y50.654 E16.33124
G1 X186.962 Y51.592 E16.43546
G1 X187.165 Y52.551 E16.53979
G1 X187.29 Y53.522 E16.64399
G1 X187.33 Y54.224 E16.71883
G1 X187.344 Y54.881 E16.78877
G1 X187.343 Y164.862 E28.49431
G1 X187.334 Y165.589 E28.5717
G1 X187.282 Y166.567 E28.67593
G1 X187.15 Y167.537 E28.78012
G1 X186.94 Y168.494 E28.8844
G1 X186.652 Y169.431 E28.98874
G1 X186.289 Y170.34 E29.09291
G1 X185.853 Y171.217 E29.19715
G1 X185.346 Y172.056 E29.30149
G1 X184.773 Y172.851 E29.40579
G1 X184.138 Y173.596 E29.50997
G1 X183.443 Y174.287 E29.61428
G1 X182.694 Y174.918 E29.71852
G1 X181.897 Y175.487 E29.82275
G1 X181.055 Y175.989 E29.92708
G1 X180.176 Y176.42 E30.03128
G1 X179.264 Y176.778 E30.13555
G1 X178.326 Y177.061 E30.23983
G1 X177.368 Y177.266 E30.3441
G1 X176.397 Y177.393 E30.44833
G1 X175.671 Y177.435 E30.52573
G1 X175.014 Y177.449 E30.59567
G1 X45.208 Y177.448 E44.41124
G1 X44.51 Y177.439 E44.48553
G1 X43.532 Y177.386 E44.58978
G1 X42.561 Y177.254 E44.69407
G1 X41.605 Y177.043 E44.79827
G1 X40.669 Y176.755 E44.9025
G1 X39.759 Y176.391 E45.00682
G1 X38.882 Y175.955 E45.11106
G1 X38.044 Y175.448 E45.2153
G1 X37.25 Y174.875 E45.31951
G1 X36.505 Y174.238 E45.42384
G1 X35.814 Y173.543 E45.52815
G1 X35.183 Y172.795 E45.6323
G1 X34.615 Y171.997 E45.73656
G1 X34.113 Y171.155 E45.84089
G1 X33.682 Y170.275 E45.94518
G1 X33.324 Y169.363 E46.04946
G1 X33.042 Y168.425 E46.15371
G1 X32.838 Y167.467 E46.25795
G1 X32.712 Y166.496 E46.36217
G1 X32.669 Y165.764 E46.44021
G1 X32.656 Y165.107 E46.51015
G1 X32.657 Y55.063 E58.2224
G1 X32.666 Y54.398 E58.29318
G1 X32.719 Y53.419 E58.39753
G1 X32.852 Y52.449 E58.50174
G1 X33.064 Y51.492 E58.60606
G1 X33.353 Y50.556 E58.71033
G1 X33.717 Y49.647 E58.81454
G1 X34.154 Y48.77 E58.91883
G1 X34.661 Y47.932 E59.02307
G1 X35.235 Y47.139 E59.12726
G1 X35.872 Y46.394 E59.23159
G1 X36.567 Y45.704 E59.33582
G1 X37.317 Y45.073 E59.44014
G0 F6000 X38.089 Y45.494
G1 F1200 X38.878 Y44.971 E59.54089
G1 X39.708 Y44.517 E59.64158
G1 X40.574 Y44.134 E59.74236
G1 X41.468 Y43.826 E59.843
G1 X42.386 Y43.594 E59.94378
G1 X43.32 Y43.441 E60.04451
G1 X44.351 Y43.364 E60.15455
G1 X44.986 Y43.351 E60.22215
G1 X174.797 Y43.352 E74.03825
G1 X175.495 Y43.362 E74.11255
G1 X176.44 Y43.416 E74.21329
G1 X177.377 Y43.549 E74.31402
G1 X178.3 Y43.76 E74.41479
G1 X179.201 Y44.049 E74.51549
G1 X180.074 Y44.413 E74.61616
G1 X180.914 Y44.85 E74.71694
G1 X181.714 Y45.355 E74.81763
G1 X182.469 Y45.927 E74.91845
G1 X183.172 Y46.56 E75.01913
G1 X183.819 Y47.25 E75.1198
G1 X184.406 Y47.992 E75.2205
G1 X184.929 Y48.781 E75.32125
G1 X185.382 Y49.612 E75.42198
G1 X185.764 Y50.478 E75.52272
G1 X186.072 Y51.373 E75.62346
G1 X186.302 Y52.291 E75.72419
G1 X186.455 Y53.225 E75.82492
G1 X186.531 Y54.246 E75.93389
G1 X186.544 Y54.881 E76.00149
G1 X186.543 Y164.852 E87.70597
G1 X186.534 Y165.579 E87.78335
G1 X186.482 Y166.524 E87.88408
G1 X186.351 Y167.461 E87.98478
G1 X186.141 Y168.384 E88.08553
G1 X185.854 Y169.285 E88.18617
G1 X185.492 Y170.16 E88.28695
G1 X185.057 Y171 E88.38763
G1 X184.553 Y171.801 E88.48836
G1 X183.983 Y172.557 E88.58913
G1 X183.352 Y173.261 E88.68975
G1 X182.663 Y173.91 E88.79049
G1 X181.921 Y174.499 E88.89132
G1 X181.133 Y175.022 E88.99198
G1 X180.304 Y175.478 E89.09268
G1 X179.438 Y175.861 E89.19346
G1 X178.544 Y176.17 E89.29414
G1 X177.627 Y176.403 E89.39484
G1 X176.693 Y176.557 E89.49559
G1 X175.649 Y176.636 E89.60702
G1 X175.014 Y176.649 E89.67462
G1 X45.219 Y176.648 E103.48902
G1 X44.521 Y176.639 E103.56331
G1 X43.576 Y176.587 E103.66404
G1 X42.639 Y176.455 E103.76475
G1 X41.716 Y176.245 E103.8655
G1 X40.814 Y175.957 E103.96628
G1 X39.94 Y175.595 E104.06696
G1 X39.1 Y175.159 E104.16769
G1 X38.299 Y174.655 E104.26842
G1 X37.544 Y174.085 E104.3691
G1 X36.839 Y173.453 E104.46987
G1 X36.191 Y172.763 E104.57062
G1 X35.603 Y172.022 E104.6713
G1 X35.08 Y171.233 E104.77205
G1 X34.625 Y170.403 E104.87279
G1 X34.242 Y169.538 E104.97348
G1 X33.933 Y168.643 E105.07425
G1 X33.701 Y167.726 E105.17492
G1 X33.547 Y166.792 E105.27567
G1 X33.469 Y165.743 E105.38763
G1 X33.456 Y165.107 E105.45534
G1 X33.457 Y55.073 E117.16652
G1 X33.466 Y54.408 E117.23731
G1 X33.519 Y53.464 E117.33794
G1 X33.651 Y52.526 E117.43875
G1 X33.862 Y51.604 E117.53942
G1 X34.15 Y50.703 E117.6401
G1 X34.513 Y49.829 E117.74082
G1 X34.949 Y48.988 E117.84165
G1 X35.454 Y48.188 E117.94234
G1 X36.025 Y47.433 E118.04309
G1 X36.657 Y46.729 E118.14378
G1 X37.347 Y46.081 E118.24453
G1 X38.089 Y45.494 E118.34522
G0 F6000 X38.858 Y45.932
G1 F1200 X39.636 Y45.457 E118.44224
G1 X40.453 Y45.051 E118.53934
G1 X41.302 Y44.719 E118.63636
G1 X42.177 Y44.462 E118.73343
G1 X43.071 Y44.283 E118.83047
G1 X44.374 Y44.164 E118.96972
G1 X44.986 Y44.151 E119.03488
G1 X174.786 Y44.152 E132.84981
G1 X175.484 Y44.162 E132.9241
G1 X176.394 Y44.215 E133.02112
G1 X177.297 Y44.348 E133.11827
G1 X178.184 Y44.559 E133.21531
G1 X179.049 Y44.847 E133.31234
G1 X179.886 Y45.209 E133.4094
G1 X180.687 Y45.644 E133.50641
G1 X181.448 Y46.147 E133.6035
G1 X182.161 Y46.715 E133.70052
G1 X182.823 Y47.343 E133.79764
G1 X183.426 Y48.027 E133.89469
G1 X183.967 Y48.761 E133.99174
G1 X184.442 Y49.539 E134.08876
G1 X184.847 Y50.356 E134.18581
G1 X185.179 Y51.206 E134.28293
G1 X185.435 Y52.081 E134.37997
G1 X185.613 Y52.975 E134.47698
G1 X185.731 Y54.269 E134.61528
G1 X185.744 Y54.881 E134.68043
G1 X185.743 Y164.842 E146.38385
G1 X185.734 Y165.569 E146.46123
G1 X185.683 Y166.479 E146.55823
G1 X185.552 Y167.382 E146.65535
G1 X185.343 Y168.269 E146.75234
G1 X185.056 Y169.135 E146.84944
G1 X184.695 Y169.972 E146.94646
G1 X184.262 Y170.775 E147.04356
G1 X183.761 Y171.537 E147.14062
G1 X183.194 Y172.251 E147.23766
G1 X182.567 Y172.913 E147.3347
G1 X181.885 Y173.518 E147.43173
G1 X181.152 Y174.061 E147.52882
G1 X180.374 Y174.537 E147.62589
G1 X179.558 Y174.944 E147.72295
G1 X178.709 Y175.277 E147.82001
G1 X177.835 Y175.535 E147.917
G1 X176.941 Y175.715 E148.01406
G1 X175.626 Y175.836 E148.15461
G1 X175.014 Y175.849 E148.21976
G1 X45.229 Y175.848 E162.03309
G1 X44.531 Y175.839 E162.10739
G1 X43.62 Y175.787 E162.20451
G1 X42.718 Y175.656 E162.30152
G1 X41.831 Y175.446 E162.39853
G1 X40.965 Y175.16 E162.4956
G1 X40.128 Y174.798 E162.59266
G1 X39.325 Y174.365 E162.68976
G1 X38.564 Y173.863 E162.78679
G1 X37.85 Y173.296 E162.88383
G1 X37.188 Y172.669 E162.98087
G1 X36.583 Y171.986 E163.07798
G1 X36.041 Y171.253 E163.17501
G1 X35.565 Y170.475 E163.27208
G1 X35.159 Y169.658 E163.36918
G1 X34.826 Y168.809 E163.46625
G1 X34.569 Y167.934 E163.56331
G1 X34.389 Y167.04 E163.66037
G1 X34.269 Y165.721 E163.80133
G1 X34.256 Y165.107 E163.8667
G1 X34.257 Y55.084 E175.57671
G1 X34.266 Y54.419 E175.6475
G1 X34.318 Y53.509 E175.74451
G1 X34.45 Y52.607 E175.84153
G1 X34.661 Y51.719 E175.93868
G1 X34.948 Y50.854 E176.03567
G1 X35.31 Y50.017 E176.13273
G1 X35.744 Y49.215 E176.22979
G1 X36.246 Y48.454 E176.32682
G1 X36.814 Y47.74 E176.42393
G1 X37.441 Y47.078 E176.52097
G1 X38.124 Y46.474 E176.61801
G1 X38.858 Y45.932 E176.71512
G1 F1500 E170.21512
;MESH:Mold_Top_1972804.stl
G0 F6000 X60.235 Y62.446
G0 X71.709 Y79.255
;TYPE:WALL-INNER
G1 F1500 E176.71512
G1 F1200 X68.123 Y79.969 E177.10428
G1 X68.015 Y79.979 E177.11582
G1 X67.764 Y79.966 E177.14258
G1 X64.133 Y79.238 E177.53672
G1 X63.882 Y79.128 E177.56589
G1 X60.813 Y77.075 E177.95888
G1 X60.554 Y76.796 E177.99939
G1 X58.547 Y73.795 E178.38364
G1 X58.41 Y73.427 E178.42544
G1 X57.716 Y69.935 E178.80437
G1 X57.716 Y69.519 E178.84864
G1 X58.427 Y65.94 E179.23701
G1 X58.531 Y65.691 E179.26573
G1 X60.607 Y62.576 E179.66415
G1 X60.79 Y62.389 E179.692
G1 X63.949 Y60.277 E180.09644
G1 X64.252 Y60.185 E180.13014
G1 X67.743 Y59.49 E180.50899
G1 X68.159 Y59.49 E180.55326
G1 X71.653 Y60.184 E180.9324
G1 X71.957 Y60.278 E180.96627
G1 X75.113 Y62.387 E181.37027
G1 X75.298 Y62.576 E181.39842
G1 X77.363 Y65.666 E181.79397
G1 X77.495 Y66.027 E181.83488
G1 X78.194 Y69.557 E182.21788
G1 X78.205 Y69.848 E182.24888
G1 X77.477 Y73.502 E182.64542
G1 X77.348 Y73.808 E182.68077
G1 X75.285 Y76.896 E183.07603
G1 X75.083 Y77.084 E183.1054
G1 X72.049 Y79.112 E183.49381
G1 X71.709 Y79.255 E183.53307
G0 F6000 X71.582 Y78.462
;TYPE:WALL-OUTER
G1 F1200 X67.974 Y79.18 E183.92461
G1 X67.89 Y79.176 E183.93356
G1 X64.327 Y78.465 E184.32025
G1 X61.262 Y76.415 E184.71271
G1 X59.213 Y73.349 E185.10519
G1 X58.492 Y69.727 E185.49826
G1 X59.213 Y66.104 E185.89142
G1 X61.268 Y63.031 E186.28488
G1 X64.264 Y61.029 E186.66839
G1 X64.408 Y60.969 E186.685
G1 X67.881 Y60.278 E187.06188
G1 X68.021 Y60.278 E187.07678
G1 X71.497 Y60.969 E187.45398
G1 X71.642 Y61.029 E187.47068
G1 X74.637 Y63.031 E187.85411
G1 X76.694 Y66.104 E188.24768
G1 X77.412 Y69.716 E188.63964
G1 X76.692 Y73.353 E189.03425
G1 X74.643 Y76.419 E189.42673
G1 X71.582 Y78.462 E189.81842
G1 F1500 E183.31842
G0 F6000 X71.859 Y78.878
G0 X74.932 Y76.706
G0 X144.977 Y76.71
G0 X148.196 Y79.256
;TYPE:WALL-INNER
G1 F1500 E189.81842
G1 F1200 X147.855 Y79.113 E189.85778
G1 X144.84 Y77.099 E190.24368
G1 X144.608 Y76.877 E190.27785
G1 X142.557 Y73.808 E190.67072
G1 X142.419 Y73.465 E190.71007
G1 X141.704 Y69.847 E191.10259
G1 X141.708 Y69.573 E191.13176
G1 X142.425 Y65.922 E191.52777
G1 X142.525 Y65.673 E191.55633
G1 X144.599 Y62.569 E191.95365
G1 X144.782 Y62.382 E191.9815
G1 X147.944 Y60.268 E192.38632
G1 X148.249 Y60.176 E192.42023
G1 X151.745 Y59.491 E192.79939
G1 X152.183 Y59.496 E192.84601
G1 X155.652 Y60.175 E193.22223
G1 X155.956 Y60.266 E193.25601
G1 X159.024 Y62.329 E193.6495
G1 X159.267 Y62.53 E193.68306
G1 X161.321 Y65.587 E194.07505
G1 X161.472 Y65.867 E194.10891
G1 X162.198 Y69.519 E194.50521
G1 X162.198 Y69.935 E194.54948
G1 X161.503 Y73.431 E194.92885
G1 X161.411 Y73.731 E194.96225
G1 X159.284 Y76.915 E195.36979
G1 X159.1 Y77.083 E195.39631
G1 X155.996 Y79.161 E195.79387
G1 X155.711 Y79.266 E195.8262
G1 X152.083 Y79.977 E196.21968
G1 X151.782 Y79.969 E196.25173
G1 X148.196 Y79.256 E196.64086
G0 F6000 X148.329 Y78.468
;TYPE:WALL-OUTER
G1 F1200 X145.268 Y76.425 E197.03255
G1 X143.21 Y73.342 E197.42707
G1 X142.493 Y69.731 E197.81891
G1 X143.201 Y66.105 E198.21212
G1 X145.26 Y63.024 E198.60652
G1 X148.322 Y60.977 E198.99853
G1 X151.883 Y60.279 E199.38475
G1 X152.029 Y60.281 E199.40029
G1 X155.576 Y60.975 E199.78497
G1 X158.645 Y63.038 E200.17855
G1 X160.7 Y66.1 E200.57103
G1 X161.41 Y69.657 E200.95708
G1 X161.41 Y69.797 E200.97198
G1 X160.704 Y73.348 E201.35732
G1 X158.651 Y76.423 E201.75084
G1 X155.57 Y78.48 E202.14513
G1 X151.949 Y79.188 E202.53782
G1 X148.329 Y78.468 E202.93065
G1 F1500 E196.43065
G0 F6000 X148.051 Y78.883
G0 X147.755 Y79.494
G0 X112.293 Y152.165
G0 X106.872 Y164.249
;TYPE:WALL-INNER
G1 F1500 E202.93065
G1 F1200 X105.545 Y163.364 E203.10041
G1 X105.213 Y163.033 E203.15031
G1 X104.066 Y161.318 E203.3699
G1 X103.917 Y161.036 E203.40385
G1 X103.458 Y158.734 E203.65368
G1 X103.483 Y158.389 E203.69049
G1 X103.906 Y156.278 E203.91964
G1 X104.01 Y156.021 E203.94915
G1 X105.234 Y154.18 E204.18444
G1 X105.465 Y153.933 E204.22044
G1 X107.257 Y152.737 E204.44974
G1 X107.551 Y152.586 E204.48492
G1 X109.759 Y152.147 E204.72452
G1 X110.107 Y152.141 E204.76157
G1 X112.252 Y152.565 E204.99428
G1 X112.567 Y152.687 E205.03023
G1 X114.451 Y153.94 E205.27105
G1 X114.644 Y154.146 E205.30109
G1 X115.867 Y155.972 E205.535
G1 X115.999 Y156.278 E205.57047
G1 X116.438 Y158.472 E205.80861
G1 X116.443 Y158.736 E205.83672
G1 X115.989 Y161.034 E206.08603
G1 X115.84 Y161.317 E206.12007
G1 X114.694 Y163.033 E206.33969
G1 X114.362 Y163.365 E206.38966
G1 X113.04 Y164.248 E206.55886
G1 X174.144 Y164.249 E213.06231
G1 X174.144 Y62.524 E223.88915
G1 X174.144 Y55.751 E224.61002
G1 X45.857 Y55.752 E238.26391
G1 X45.857 Y164.248 E249.81141
G1 X106.872 Y164.249 E256.30538
G0 F6000 X105.529 Y163.715
G0 X107.744 Y164.549
G0 X107.744 Y165.048
;TYPE:WALL-OUTER
G1 F1224.5 X109.953 Y165.065 E256.5358
G1 X112.17 Y165.048 E256.76704
G1 F1200 X174.944 Y165.049 E263.44823
G1 X174.944 Y62.524 E274.36022
G1 X174.944 Y54.951 E275.16623
G1 X45.057 Y54.952 E288.99042
G1 X45.057 Y165.048 E300.70821
G1 X107.744 Y165.048 E307.38014
G1 F1500 E300.88014
G0 F6000 X107.744 Y164.549
G0 X105.607 Y162.97
G0 X104.273 Y160.976
G0 X103.804 Y158.623
G0 X104.273 Y156.27
G0 X105.605 Y154.276
G0 X107.598 Y152.945
G0 X109.953 Y152.475
G0 X112.306 Y152.944
G0 X114.295 Y154.273
G0 X115.631 Y156.269
G0 X116.1 Y158.615
G0 X115.632 Y160.976
G0 X114.3 Y162.971
G0 X112.306 Y164.303
G0 X110.465 Y164.64
G1 F1500 E307.38014
G0 F6000 X109.954 Y164.309
G1 F1210.6 X107.856 Y163.907 E307.6055
G1 F1200 X107.712 Y163.847 E307.62211
G1 X105.989 Y162.698 E307.84253
G1 X105.878 Y162.588 E307.85916
G1 X104.687 Y160.807 E308.08719
G1 X104.255 Y158.611 E308.3254
G1 X104.686 Y156.444 E308.56056
G1 X105.918 Y154.596 E308.79694
G1 X107.768 Y153.358 E309.03386
G1 X109.874 Y152.939 E309.2624
G1 X109.96 Y152.932 E309.27159
G1 X110.032 Y152.939 E309.27929
G1 X112.128 Y153.356 E309.50674
G1 X113.972 Y154.583 E309.74248
G1 X115.219 Y156.443 E309.98082
G1 X115.649 Y158.603 E310.21522
G1 X115.218 Y160.806 E310.45414
G1 X114.028 Y162.589 E310.68229
G1 X113.918 Y162.699 E310.69885
G1 X112.203 Y163.845 E310.91838
G1 X112.058 Y163.905 E310.93508
G1 F1210.6 X109.954 Y164.309 E311.16111
G1 F1500 E304.66111
G0 F6000 X110.465 Y164.64
G0 X112.306 Y164.303
G0 X114.3 Y162.971
G0 X115.632 Y160.976
G0 X116.1 Y158.615
G0 X115.631 Y156.269
G0 X114.295 Y154.273
G0 X112.306 Y152.944
G0 X109.953 Y152.475
G0 X107.598 Y152.945
G0 X105.605 Y154.276
G0 X104.273 Y156.27
G0 X103.804 Y158.623
G0 X104.183 Y160.528
G0 X104.917 Y163.131
G1 F1500 E311.16111
G0 F6000 X104.675 Y163.529
;TYPE:SKIN
G1 F1200 X103.448 Y161.688 E311.39659
G1 X103.28 Y161.368 E311.43505
G1 X103.178 Y161.018 E311.47385
G1 X102.74 Y158.813 E311.71312
G1 X102.754 Y158.36 E311.76136
G1 X103.213 Y156.045 E312.01255
G1 X103.412 Y155.617 E312.06278
