;FLAVOR:Marlin
;TIME:19526
;Filament used: 49.563m
;Layer height: 0.32
;MINX:32.656
;MINY:42.551
;MINZ:0.32
;MAXX:187.344
;MAXY:177.449
;MAXZ:40.96
;Generated with Cura_SteamEngine 5.2.1
M82 ;absolute extrusion mode
; Ender 3 Custom Start G-code
G92 E0 ; Reset Extruder
G28 ; Home all axes
M104 S175 ; Start heating up the nozzle most of the way
M190 S60 ; Start heating the bed, wait until target temperature reached
M109 S200 ; Finish heating the nozzle
G1 Z2.0 F3000 ; Move Z Axis up little to prevent scratching of Heat Bed
G1 X0.1 Y20 Z0.3 F5000.0 ; Move to start position
G1 X0.1 Y200.0 Z0.3 F1500.0 E15 ; Draw the first line
G1 X0.4 Y200.0 Z0.3 F5000.0 ; Move to side a little
G1 X0.4 Y20 Z0.3 F1500.0 E30 ; Draw the second line
G92 E0 ; Reset Extruder
G1 Z2.0 F3000 ; Move Z Axis up little to prevent scratching of Heat Bed
G1 X5 Y20 Z0.3 F5000.0 ; Move over to prevent blob squish
G92 E0
G92 E0
G1 F1500 E-6.5
;LAYER_COUNT:128
;LAYER:0
M107
G0 F6000 X37.317 Y45.073 Z0.32
;TYPE:SKIRT
G1 F1500 E0
G1 F1200 X38.115 Y44.505 E0.10425
G1 X38.957 Y44.005 E0.20848
G1 X39.837 Y43.574 E0.31277
G1 X40.749 Y43.217 E0.41701
G1 X41.687 Y42.935 E0.52125
G1 X42.645 Y42.731 E0.6255
G1 X43.617 Y42.606 E0.72981
G1 X44.329 Y42.565 E0.80571
G1 X44.986 Y42.551 E0.87565
G1 X174.809 Y42.552 E14.69303
G1 X175.507 Y42.562 E14.76733
G1 X176.485 Y42.616 E14.87158
G1 X177.455 Y42.75 E14.9758
G1 X178.412 Y42.962 E15.08012
G1 X179.348 Y43.252 E15.18442
G1 X180.257 Y43.617 E15.28867
G1 X181.133 Y44.055 E15.39291
G1 X181.971 Y44.563 E15.49721
G1 X182.764 Y45.137 E15.6014
G1 X183.508 Y45.774 E15.70564
G1 X184.197 Y46.47 E15.80988
G1 X184.828 Y47.22 E15.9142
G1 X185.395 Y48.019 E16.01847
G1 X185.895 Y48.861 E16.1227
G1 X186.325 Y49.741 E16.22694
G1 X186.681 Y50.654 E16.33124
G1 X186.962 Y51.592 E16.43546
G1 X187.165 Y52.551 E16.53979
G1 X187.29 Y53.522 E16.64399
G1 X187.33 Y54.224 E16.71883
G1 X187.344 Y54.881 E16.78877
G1 X187.343 Y164.862 E28.49431
G1 X187.334 Y165.589 E28.5717
G1 X187.282 Y166.567 E28.67593
G1 X187.15 Y167.537 E28.78012
G1 X186.94 Y168.494 E28.8844
G1 X186.652 Y169.431 E28.98874
G1 X186.289 Y170.34 E29.09291
G1 X185.853 Y171.217 E29.19715
G1 X185.346 Y172.056 E29.30149
G1 X184.773 Y172.851 E29.40579
G1 X184.138 Y173.596 E29.50997
G1 X183.443 Y174.287 E29.61428
G1 X182.694 Y174.918 E29.71852
G1 X181.897 Y175.487 E29.82275
G1 X181.055 Y175.989 E29.92708
G1 X180.176 Y176.42 E30.03128
G1 X179.264 Y176.778 E30.13555
G1 X178.326 Y177.061 E30.23983
G1 X177.368 Y177.266 E30.3441
G1 X176.397 Y177.393 E30.44833
G1 X175.671 Y177.435 E30.52573
G1 X175.014 Y177.449 E30.59567
G1 X45.208 Y177.448 E44.41124
G1 X44.51 Y177.439 E44.48553
G1 X43.532 Y177.386 E44.58978
G1 X42.561 Y177.254 E44.69407
G1 X41.605 Y177.043 E44.79827
G1 X40.669 Y176.755 E44.9025
G1 X39.759 Y176.391 E45.00682
G1 X38.882 Y175.955 E45.11106
G1 X38.044 Y175.448 E45.2153
G1 X37.25 Y174.875 E45.31951
G1 X36.505 Y174.238 E45.42384
G1 X35.814 Y173.543 E45.52815
G1 X35.183 Y172.795 E45.6323
G1 X34.615 Y171.997 E45.73656
G1 X34.113 Y171.155 E45.84089
G1 X33.682 Y170.275 E45.94518
G1 X33.324 Y169.363 E46.04946
G1 X33.042 Y168.425 E46.15371
G1 X32.838 Y167.467 E46.25795
G1 X32.712 Y166.496 E46.36217
G1 X32.669 Y165.764 E46.44021
G1 X32.656 Y165.107 E46.51015
G1 X32.657 Y55.063 E58.2224
G1 X32.666 Y54.398 E58.29318
G1 X32.719 Y53.419 E58.39753
G1 X32.852 Y52.449 E58.50174
G1 X33.064 Y51.492 E58.60606
G1 X33.353 Y50.556 E58.71033
G1 X33.717 Y49.647 E58.81454
G1 X34.154 Y48.77 E58.91883
G1 X34.661 Y47.932 E59.02307
G1 X35.235 Y47.139 E59.12726
G1 X35.872 Y46.394 E59.23159
G1 X36.567 Y45.704 E59.33582
G1 X37.317 Y45.073 E59.44014
G0 F6000 X38.089 Y45.494
G1 F1200 X38.878 Y44.971 E59.54089
G1 X39.708 Y44.517 E59.64158
G1 X40.574 Y44.134 E59.74236
G1 X41.468 Y43.826 E59.843
G1 X42.386 Y43.594 E59.94378
G1 X43.32 Y43.441 E60.04451
G1 X44.351 Y43.364 E60.15455
G1 X44.986 Y43.351 E60.22215
G1 X174.797 Y43.352 E74.03825
G1 X175.495 Y43.362 E74.11255
G1 X176.44 Y43.416 E74.21329
G1 X177.377 Y43.549 E74.31402
G1 X178.3 Y43.76 E74.41479
G1 X179.201 Y44.049 E74.51549
G1 X180.074 Y44.413 E74.61616
G1 X180.914 Y44.85 E74.71694
G1 X181.714 Y45.355 E74.81763
G1 X182.469 Y45.927 E74.91845
G1 X183.172 Y46.56 E75.01913
G1 X183.819 Y47.25 E75.1198
G1 X184.406 Y47.992 E75.2205
G1 X184.929 Y48.781 E75.32125
G1 X185.382 Y49.612 E75.42198
G1 X185.764 Y50.478 E75.52272
G1 X186.072 Y51.373 E75.62346
G1 X186.302 Y52.291 E75.72419
G1 X186.455 Y53.225 E75.82492
G1 X186.531 Y54.246 E75.93389
G1 X186.544 Y54.881 E76.00149
G1 X186.543 Y164.852 E87.70597
G1 X186.534 Y165.579 E87.78335
G1 X186.482 Y166.524 E87.88408
G1 X186.351 Y167.461 E87.98478
G1 X186.141 Y168.384 E88.08553
G1 X185.854 Y169.285 E88.18617
G1 X185.492 Y170.16 E88.28695
G1 X185.057 Y171 E88.38763
G1 X184.553 Y171.801 E88.48836
G1 X183.983 Y172.557 E88.58913
G1 X183.352 Y173.261 E88.68975
G1 X182.663 Y173.91 E88.79049
G1 X181.921 Y174.499 E88.89132
G1 X181.133 Y175.022 E88.99198
G1 X180.304 Y175.478 E89.09268
G1 X179.438 Y175.861 E89.19346
G1 X178.544 Y176.17 E89.29414
G1 X177.627 Y176.403 E89.39484
G1 X176.693 Y176.557 E89.49559
G1 X175.649 Y176.636 E89.60702
G1 X175.014 Y176.649 E89.67462
G1 X45.219 Y176.648 E103.48902
G1 X44.521 Y176.639 E103.56331
G1 X43.576 Y176.587 E103.66404
G1 X42.639 Y176.455 E103.76475
G1 X41.716 Y176.245 E103.8655
G1 X40.814 Y175.957 E103.96628
G1 X39.94 Y175.595 E104.06696
G1 X39.1 Y175.159 E104.16769
G1 X38.299 Y174.655 E104.26842
G1 X37.544 Y174.085 E104.3691
G1 X36.839 Y173.453 E104.46987
G1 X36.191 Y172.763 E104.57062
G1 X35.603 Y172.022 E104.6713
G1 X35.08 Y171.233 E104.77205
G1 X34.625 Y170.403 E104.87279
G1 X34.242 Y169.538 E104.97348
G1 X33.933 Y168.643 E105.07425
G1 X33.701 Y167.726 E105.17492
G1 X33.547 Y166.792 E105.27567
G1 X33.469 Y165.743 E105.38763
G1 X33.456 Y165.107 E105.45534
G1 X33.457 Y55.073 E117.16652
G1 X33.466 Y54.408 E117.23731
G1 X33.519 Y53.464 E117.33794
G1 X33.651 Y52.526 E117.43875
G1 X33.862 Y51.604 E117.53942
G1 X34.15 Y50.703 E117.6401
G1 X34.513 Y49.829 E117.74082
G1 X34.949 Y48.988 E117.84165
G1 X35.454 Y48.188 E117.94234
G1 X36.025 Y47.433 E118.04309
G1 X36.657 Y46.729 E118.14378
G1 X37.347 Y46.081 E118.24453
G1 X38.089 Y45.494 E118.34522
G0 F6000 X38.858 Y45.932
G1 F1200 X39.636 Y45.457 E118.44224
G1 X40.453 Y45.051 E118.53934
G1 X41.302 Y44.719 E118.63636
G1 X42.177 Y44.462 E118.73343
G1 X43.071 Y44.283 E118.83047
G1 X44.374 Y44.164 E118.96972
G1 X44.986 Y44.151 E119.03488
G1 X174.786 Y44.152 E132.84981
G1 X175.484 Y44.162 E132.9241
G1 X176.394 Y44.215 E133.02112
G1 X177.297 Y44.348 E133.11827
G1 X178.184 Y44.559 E133.21531
G1 X179.049 Y44.847 E133.31234
G1 X179.886 Y45.209 E133.4094
G1 X180.687 Y45.644 E133.50641
G1 X181.448 Y46.147 E133.6035
G1 X182.161 Y46.715 E133.70052
G1 X182.823 Y47.343 E133.79764
G1 X183.426 Y48.027 E133.89469
G1 X183.967 Y48.761 E133.99174
G1 X184.442 Y49.539 E134.08876
G1 X184.847 Y50.356 E134.18581
G1 X185.179 Y51.206 E134.28293
G1 X185.435 Y52.081 E134.37997
G1 X185.613 Y52.975 E134.47698
G1 X185.731 Y54.269 E134.61528
G1 X185.744 Y54.881 E134.68043
G1 X185.743 Y164.842 E146.38385
G1 X185.734 Y165.569 E146.46123
G1 X185.683 Y166.479 E146.55823
G1 X185.552 Y167.382 E146.65535
G1 X185.343 Y168.269 E146.75234
G1 X185.056 Y169.135 E146.84944
G1 X184.695 Y169.972 E146.94646
G1 X184.262 Y170.775 E147.04356
G1 X183.761 Y171.537 E147.14062
G1 X183.194 Y172.251 E147.23766
G1 X182.567 Y172.913 E147.3347
G1 X181.885 Y173.518 E147.43173
G1 X181.152 Y174.061 E147.52882
G1 X180.374 Y174.537 E147.62589
G1 X179.558 Y174.944 E147.72295
G1 X178.709 Y175.277 E147.82001
G1 X177.835 Y175.535 E147.917
G1 X176.941 Y175.715 E148.01406
G1 X175.626 Y175.836 E148.15461
G1 X175.014 Y175.849 E148.21976
G1 X45.229 Y175.848 E162.03309
G1 X44.531 Y175.839 E162.10739
G1 X43.62 Y175.787 E162.20451
G1 X42.718 Y175.656 E162.30152
G1 X41.831 Y175.446 E162.39853
G1 X40.965 Y175.16 E162.4956
G1 X40.128 Y174.798 E162.59266
G1 X39.325 Y174.365 E162.68976
G1 X38.564 Y173.863 E162.78679
G1 X37.85 Y173.296 E162.88383
G1 X37.188 Y172.669 E162.98087
G1 X36.583 Y171.986 E163.07798
G1 X36.041 Y171.253 E163.17501
G1 X35.565 Y170.475 E163.27208
G1 X35.159 Y169.658 E163.36918
G1 X34.826 Y168.809 E163.46625
G1 X34.569 Y167.934 E163.56331
G1 X34.389 Y167.04 E163.66037
G1 X34.269 Y165.721 E163.80133
G1 X34.256 Y165.107 E163.8667
G1 X34.257 Y55.084 E175.57671
G1 X34.266 Y54.419 E175.6475
G1 X34.318 Y53.509 E175.74451
G1 X34.45 Y52.607 E175.84153
G1 X34.661 Y51.719 E175.93868
G1 X34.948 Y50.854 E176.03567
G1 X35.31 Y50.017 E176.13273
G1 X35.744 Y49.215 E176.22979
G1 X36.246 Y48.454 E176.32682
G1 X36.814 Y47.74 E176.42393
G1 X37.441 Y47.078 E176.52097
G1 X38.124 Y46.474 E176.61801
G1 X38.858 Y45.932 E176.71512
G1 F1500 E170.21512
;MESH:Mold_Bottom-WO_Insert_1972804.stl
G0 F6000 X45.476 Y53.886
G0 X45.856 Y164.249
;TYPE:WALL-INNER
G1 F1500 E176.71512
G1 F1200 X174.144 Y164.249 E190.36913
G1 X174.144 Y110 E196.14298
G1 X174.144 Y55.751 E201.91683
G1 X45.856 Y55.751 E215.57084
G1 X45.856 Y164.249 E227.11854
G0 F6000 X45.526 Y164.579
G0 X45.056 Y165.049
;TYPE:WALL-OUTER
G1 F1200 X174.944 Y165.049 E240.94284
G1 X174.944 Y110 E246.80184
G1 X174.944 Y54.951 E252.66084
G1 X45.056 Y54.951 E266.48513
G1 X45.056 Y165.049 E278.20313
G0 F6000 X45.526 Y164.579
G0 X46.156 Y163.529
G0 X46.576 Y163.529
;TYPE:SKIN
G1 F1200 X173.424 Y163.529 E291.70387
G1 X173.424 Y110 E297.40109
G1 X173.424 Y56.471 E303.09831
G1 X46.576 Y56.471 E316.59906
G1 X46.576 Y163.529 E327.9935
G0 F6000 X46.156 Y163.529
G0 X46.228 Y163.877
G0 X47.728 Y163.949
G0 X47.728 Y163.128
G1 F1200 X46.975 Y162.375 E328.10684
G0 F6000 X46.156 Y162.375
G0 X46.156 Y161.244
G0 X46.975 Y161.244
G1 F1200 X48.859 Y163.128 E328.39041
G0 F6000 X48.859 Y163.949
G0 X49.991 Y163.949
G0 X49.991 Y163.128
G1 F1200 X46.975 Y160.113 E328.8443
G0 F6000 X46.156 Y160.113
G0 X46.156 Y158.981
G0 X46.975 Y158.981
G1 F1200 X51.122 Y163.128 E329.4685
G0 F6000 X51.122 Y163.949
G0 X52.253 Y163.949
G0 X52.253 Y163.128
G1 F1200 X46.975 Y157.85 E330.26294
G0 F6000 X46.156 Y157.85
G0 X46.156 Y156.718
G0 X46.975 Y156.718
G1 F1200 X53.385 Y163.128 E331.22776
G0 F6000 X53.385 Y163.949
G0 X54.516 Y163.949
G0 X54.516 Y163.128
G1 F1200 X46.975 Y155.587 E332.36282
G0 F6000 X46.156 Y155.587
G0 X46.156 Y154.456
G0 X46.975 Y154.456
G1 F1200 X55.647 Y163.128 E333.66811
G0 F6000 X55.647 Y163.949
G0 X56.779 Y163.949
G0 X56.779 Y163.128
G1 F1200 X46.975 Y153.324 E335.14379
G0 F6000 X46.156 Y153.324
G0 X46.156 Y152.193
G0 X46.975 Y152.193
G1 F1200 X57.91 Y163.128 E336.78971
G0 F6000 X57.91 Y163.949
G0 X59.042 Y163.949
G0 X59.042 Y163.128
G1 F1200 X46.975 Y151.062 E338.60593
G0 F6000 X46.156 Y151.062
G0 X46.156 Y149.93
G0 X46.975 Y149.93
G1 F1200 X60.173 Y163.128 E340.59247
G0 F6000 X60.173 Y163.949
G0 X61.304 Y163.949
G0 X61.304 Y163.128
G1 F1200 X46.975 Y148.799 E342.74925
G0 F6000 X46.156 Y148.799
G0 X46.156 Y147.667
G0 X46.975 Y147.667
G1 F1200 X62.436 Y163.128 E345.07641
G0 F6000 X62.436 Y163.949
G0 X63.567 Y163.949
G0 X63.567 Y163.128
G1 F1200 X46.975 Y146.536 E347.57381
G0 F6000 X46.156 Y146.536
G0 X46.156 Y145.405
G0 X46.975 Y145.405
G1 F1200 X64.698 Y163.128 E350.24144
G0 F6000 X64.698 Y163.949
G0 X65.83 Y163.949
G0 X65.83 Y163.128
G1 F1200 X46.975 Y144.273 E353.07946
G0 F6000 X46.156 Y144.273
G0 X46.156 Y143.142
G0 X46.975 Y143.142
G1 F1200 X66.961 Y163.128 E356.08772
G0 F6000 X66.961 Y163.949
G0 X68.092 Y163.949
G0 X68.092 Y163.128
G1 F1200 X46.975 Y142.011 E359.26621
G0 F6000 X46.156 Y142.011
G0 X46.156 Y140.879
G0 X46.975 Y140.879
G1 F1200 X69.224 Y163.128 E362.61509
G0 F6000 X69.224 Y163.949
G0 X70.355 Y163.949
G0 X70.355 Y163.128
G1 F1200 X46.975 Y139.748 E366.13421
G0 F6000 X46.156 Y139.748
G0 X46.156 Y138.616
G0 X46.975 Y138.616
G1 F1200 X71.487 Y163.128 E369.82371
G0 F6000 X71.487 Y163.949
G0 X72.618 Y163.949
G0 X72.618 Y163.128
G1 F1200 X46.975 Y137.485 E373.68345
G0 F6000 X46.156 Y137.485
G0 X46.156 Y136.354
G0 X46.975 Y136.354
G1 F1200 X73.749 Y163.128 E377.71342
G0 F6000 X73.749 Y163.949
G0 X74.881 Y163.949
G0 X74.881 Y163.128
G1 F1200 X46.975 Y135.222 E381.91378
G0 F6000 X46.156 Y135.222
G0 X46.156 Y134.091
G0 X46.975 Y134.091
G1 F1200 X76.012 Y163.128 E386.28438
G0 F6000 X76.012 Y163.949
G0 X77.143 Y163.949
G0 X77.143 Y163.128
G1 F1200 X46.975 Y132.96 E390.82521
G0 F6000 X46.156 Y132.96
G0 X46.156 Y131.828
G0 X46.975 Y131.828
G1 F1200 X78.275 Y163.128 E395.53643
G0 F6000 X78.275 Y163.949
G0 X79.406 Y163.949
G0 X79.406 Y163.128
G1 F1200 X46.975 Y130.697 E400.41788
G0 F6000 X46.156 Y130.697
G0 X46.156 Y129.566
G0 X46.975 Y129.566
G1 F1200 X80.538 Y163.128 E405.46965
G0 F6000 X80.538 Y163.949
G0 X81.669 Y163.949
G0 X81.669 Y163.128
G1 F1200 X46.975 Y128.434 E410.69173
G0 F6000 X46.156 Y128.434
G0 X46.156 Y127.303
G0 X46.975 Y127.303
G1 F1200 X82.8 Y163.128 E416.08404
G0 F6000 X82.8 Y163.949
G0 X83.932 Y163.949
G0 X83.932 Y163.128
G1 F1200 X46.975 Y126.171 E421.64674
G0 F6000 X46.156 Y126.171
G0 X46.156 Y125.04
G0 X46.975 Y125.04
G1 F1200 X85.063 Y163.128 E427.37968
G0 F6000 X85.063 Y163.949
G0 X86.194 Y163.949
G0 X86.194 Y163.128
G1 F1200 X46.975 Y123.909 E433.28285
G0 F6000 X46.156 Y123.909
G0 X46.156 Y122.777
G0 X46.975 Y122.777
G1 F1200 X87.326 Y163.128 E439.35641
G0 F6000 X87.326 Y163.949
G0 X88.457 Y163.949
G0 X88.457 Y163.128
G1 F1200 X46.975 Y121.646 E445.60021
G0 F6000 X46.156 Y121.646
G0 X46.156 Y120.515
G0 X46.975 Y120.515
G1 F1200 X89.589 Y163.128 E452.01431
G0 F6000 X89.589 Y163.949
G0 X90.72 Y163.949
G0 X90.72 Y163.128
G1 F1200 X46.975 Y119.383 E458.59873
G0 F6000 X46.156 Y119.383
G0 X46.156 Y118.252
G0 X46.975 Y118.252
G1 F1200 X91.851 Y163.128 E465.35339
G0 F6000 X91.851 Y163.949
G0 X92.983 Y163.949
G0 X92.983 Y163.128
G1 F1200 X46.975 Y117.12 E472.27843
G0 F6000 X46.156 Y117.12
G0 X46.156 Y115.989
G0 X46.975 Y115.989
G1 F1200 X94.114 Y163.128 E479.37371
G0 F6000 X94.114 Y163.949
G0 X95.245 Y163.949
G0 X95.245 Y163.128
G1 F1200 X46.975 Y114.858 E486.63922
G0 F6000 X46.156 Y114.858
G0 X46.156 Y113.726
G0 X46.975 Y113.726
G1 F1200 X96.377 Y163.128 E494.07512
G0 F6000 X96.377 Y163.949
G0 X97.508 Y163.949
G0 X97.508 Y163.128
G1 F1200 X46.975 Y112.595 E501.68125
G0 F6000 X46.156 Y112.595
G0 X46.156 Y111.464
G0 X46.975 Y111.464
G1 F1200 X98.639 Y163.128 E509.45763
G0 F6000 X98.639 Y163.949
G0 X99.771 Y163.949
G0 X99.771 Y163.128
G1 F1200 X46.975 Y110.332 E517.40438
G0 F6000 X46.156 Y110.332
G0 X46.156 Y109.201
G0 X46.975 Y109.201
G1 F1200 X100.902 Y163.128 E525.52138
G0 F6000 X100.902 Y163.949
G0 X102.034 Y163.949
G0 X102.034 Y163.128
G1 F1200 X46.975 Y108.069 E533.80876
G0 F6000 X46.156 Y108.069
G0 X46.156 Y106.938
G0 X46.975 Y106.938
G1 F1200 X103.165 Y163.128 E542.26638
G0 F6000 X103.165 Y163.949
G0 X104.296 Y163.949
G0 X104.296 Y163.128
G1 F1200 X46.975 Y105.807 E550.89423
G0 F6000 X46.156 Y105.807
G0 X46.156 Y104.675
G0 X46.975 Y104.675
G1 F1200 X105.428 Y163.128 E559.69247
G0 F6000 X105.428 Y163.949
G0 X106.559 Y163.949
G0 X106.559 Y163.128
G1 F1200 X46.975 Y103.544 E568.66094
G0 F6000 X46.156 Y103.544
G0 X46.156 Y102.413
G0 X46.975 Y102.413
G1 F1200 X107.69 Y163.128 E577.79966
G0 F6000 X107.69 Y163.949
G0 X108.822 Y163.949
G0 X108.822 Y163.128
G1 F1200 X46.975 Y101.281 E587.10875
G0 F6000 X46.156 Y101.281
G0 X46.156 Y100.15
G0 X46.975 Y100.15
G1 F1200 X109.953 Y163.128 E596.58809
G0 F6000 X109.953 Y163.949
G0 X111.085 Y163.949
G0 X111.085 Y163.128
G1 F1200 X46.975 Y99.018 E606.23781
G0 F6000 X46.156 Y99.018
G0 X46.156 Y97.887
G0 X46.975 Y97.887
G1 F1200 X112.217 Y163.128 E616.05784
G0 F6000 X112.217 Y163.949
