;FLAVOR:Marlin
;TIME:3236
;Filament used: 6.41364m
;Layer height: 0.32
;MINX:35.505
;MINY:2.117
;MINZ:0.32
;MAXX:184.49
;MAXY:205.49
;MAXZ:9.92
;Generated with Cura_SteamEngine 5.2.1
M82 ;absolute extrusion mode
; Ender 3 Custom Start G-code
G92 E0 ; Reset Extruder
G28 ; Home all axes
M104 S175 ; Start heating up the nozzle most of the way
M190 S60 ; Start heating the bed, wait until target temperature reached
M109 S200 ; Finish heating the nozzle
G1 Z2.0 F3000 ; Move Z Axis up little to prevent scratching of Heat Bed
G1 X0.1 Y20 Z0.3 F5000.0 ; Move to start position
G1 X0.1 Y200.0 Z0.3 F1500.0 E15 ; Draw the first line
G1 X0.4 Y200.0 Z0.3 F5000.0 ; Move to side a little
G1 X0.4 Y20 Z0.3 F1500.0 E30 ; Draw the second line
G92 E0 ; Reset Extruder
G1 Z2.0 F3000 ; Move Z Axis up little to prevent scratching of Heat Bed
G1 X5 Y20 Z0.3 F5000.0 ; Move over to prevent blob squish
G92 E0
G92 E0
G1 F1500 E-6.5
;LAYER_COUNT:31
;LAYER:0
M107
G0 F6000 X54.724 Y35.223 Z0.32
;TYPE:SKIRT
G1 F1500 E0
G1 F1200 X55.653 Y33.783 E0.18239
G1 X56.523 Y32.472 E0.34985
G1 X56.98 Y31.799 E0.43643
G1 X57.997 Y30.339 E0.62581
G1 X58.526 Y29.599 E0.72262
G1 X59.413 Y28.389 E0.8823
G1 X60.114 Y27.456 E1.00651
G1 X61.138 Y26.131 E1.18474
G1 X61.588 Y25.563 E1.26187
G1 X62.667 Y24.234 E1.44406
G1 X63.968 Y22.686 E1.65928
G1 X64.656 Y21.893 E1.77102
G1 X65.739 Y20.674 E1.94457
G1 X66.951 Y19.354 E2.1353
G1 X68.088 Y18.159 E2.31086
G1 X69.147 Y17.079 E2.47184
G1 X70.371 Y15.868 E2.6551
G1 X72.241 Y13.979 E2.938
G1 X73.952 Y12.152 E3.20441
G1 X75.582 Y10.307 E3.46644
G1 X77.191 Y8.381 E3.73355
G1 X77.822 Y7.578 E3.84224
G1 X78.612 Y6.596 E3.97638
G1 X79.257 Y5.859 E4.08062
G1 X79.959 Y5.176 E4.18486
G1 X80.715 Y4.553 E4.28913
G1 X81.52 Y3.994 E4.39344
G1 X82.367 Y3.502 E4.49769
G1 X83.251 Y3.081 E4.6019
G1 X84.167 Y2.734 E4.70615
G1 X85.109 Y2.462 E4.81051
G1 X86.069 Y2.268 E4.91475
G1 X87.042 Y2.153 E5.01903
G1 X88.259 Y2.122 E5.1486
G1 X88.704 Y2.133 E5.19598
G1 X89.681 Y2.197 E5.30018
G1 X90.822 Y2.375 E5.42309
G1 X91.873 Y2.591 E5.53729
G1 X94.477 Y3.096 E5.81961
G1 X96.932 Y3.499 E6.08439
G1 X99.387 Y3.832 E6.34808
G1 X101.885 Y4.099 E6.61546
G1 X104.343 Y4.292 E6.87788
G1 X106.841 Y4.417 E7.14408
G1 X109.306 Y4.47 E7.40649
G1 X111.816 Y4.453 E7.67365
G1 X114.305 Y4.367 E7.93871
G1 X116.788 Y4.209 E8.20352
G1 X119.26 Y3.983 E8.46772
G1 X121.734 Y3.685 E8.73294
G1 X124.165 Y3.323 E8.99453
G1 X127.897 Y2.631 E9.3985
G1 X128.926 Y2.419 E9.51032
G1 X129.534 Y2.306 E9.57614
G1 X130.505 Y2.172 E9.68047
G1 X131.483 Y2.117 E9.78472
G1 X132.226 Y2.129 E9.86381
G1 X132.608 Y2.147 E9.90451
G1 X133.584 Y2.233 E10.00879
G1 X134.549 Y2.399 E10.11301
G1 X135.498 Y2.642 E10.21727
G1 X136.424 Y2.962 E10.32155
G1 X137.32 Y3.357 E10.42577
G1 X138.182 Y3.823 E10.53006
G1 X139.002 Y4.358 E10.63427
G1 X139.777 Y4.958 E10.73858
G1 X140.499 Y5.62 E10.84284
G1 X141.422 Y6.649 E10.98996
G1 X143.145 Y8.808 E11.28395
G1 X144.742 Y10.693 E11.5469
G1 X146.416 Y12.561 E11.81387
G1 X148.132 Y14.37 E12.07925
G1 X149.481 Y15.723 E12.2826
G1 X150.852 Y17.079 E12.48783
G1 X151.912 Y18.16 E12.64897
G1 X153.049 Y19.355 E12.82453
G1 X154.257 Y20.67 E13.01458
G1 X155.48 Y22.047 E13.2106
G1 X156.546 Y23.289 E13.3848
G1 X157.333 Y24.233 E13.51561
G1 X158.32 Y25.448 E13.68221
G1 X159.561 Y27.03 E13.89621
G1 X160.48 Y28.245 E14.05836
G1 X161.474 Y29.6 E14.23721
G1 X162.6 Y31.191 E14.44467
G1 X163.452 Y32.436 E14.60523
G1 X164.433 Y33.914 E14.79404
G1 X165.279 Y35.228 E14.96037
G1 X165.832 Y36.109 E15.07108
G1 X166.611 Y37.378 E15.22956
G1 X167.428 Y38.748 E15.39933
G1 X168.172 Y40.027 E15.55681
G1 X169.048 Y41.575 E15.74612
G1 X169.743 Y42.833 E15.89909
G1 X170.808 Y44.821 E16.13912
G1 X171.662 Y46.46 E16.33583
G1 X172.108 Y47.335 E16.44035
G1 X173.243 Y49.609 E16.71085
G1 X173.78 Y50.718 E16.842
G1 X174.656 Y52.569 E17.05995
G1 X175.739 Y54.934 E17.3368
G1 X176.875 Y57.503 E17.63577
G1 X177.931 Y59.982 E17.92255
G1 X178.947 Y62.461 E18.2077
G1 X179.521 Y63.913 E18.37388
G1 X180.115 Y65.509 E18.55513
G1 X180.585 Y66.857 E18.70707
G1 X181.321 Y69.16 E18.96439
G1 X181.799 Y70.813 E19.14753
G1 X182.209 Y72.36 E19.31787
G1 X182.629 Y74.103 E19.50869
G1 X183.043 Y76.038 E19.7193
G1 X183.344 Y77.629 E19.89164
G1 X183.636 Y79.394 E20.08204
G1 X183.914 Y81.386 E20.29611
G1 X184.084 Y82.856 E20.45361
G1 X184.246 Y84.589 E20.63886
G1 X184.381 Y86.555 E20.8486
G1 X184.451 Y88.095 E21.01268
G1 X184.488 Y89.588 E21.17163
G1 X184.49 Y91.616 E21.38747
G1 X184.45 Y93.292 E21.56591
G1 X184.343 Y95.448 E21.79566
G1 X184.231 Y96.95 E21.95596
G1 X184.063 Y98.687 E22.1417
G1 X183.805 Y100.797 E22.36794
G1 X183.597 Y102.211 E22.52006
G1 X183.348 Y103.696 E22.68032
G1 X182.967 Y105.689 E22.89628
G1 X182.587 Y107.431 E23.08604
G1 X182.167 Y109.156 E23.275
G1 X181.674 Y110.983 E23.47641
G1 X181.078 Y112.977 E23.69791
G1 X180.564 Y114.559 E23.87495
G1 X180.049 Y116.027 E24.04053
G1 X179.363 Y117.85 E24.24784
G1 X178.918 Y118.961 E24.37522
G1 X178.282 Y120.458 E24.54833
G1 X177.483 Y122.227 E24.75492
G1 X176.74 Y123.773 E24.93749
G1 X175.919 Y125.377 E25.12927
G1 X174.921 Y127.209 E25.35131
G1 X174.035 Y128.741 E25.53966
G1 X173.251 Y130.031 E25.70033
G1 X172.274 Y131.559 E25.89336
G1 X170.927 Y133.54 E26.14833
G1 X169.904 Y134.959 E26.33451
G1 X169.209 Y135.885 E26.45774
G1 X167.944 Y137.495 E26.67566
G1 X166.819 Y138.855 E26.86351
G1 X165.685 Y140.161 E27.0476
G1 X164.439 Y141.528 E27.24446
G1 X162.957 Y143.069 E27.47202
G1 X161.722 Y144.288 E27.65671
G1 X160.396 Y145.536 E27.85051
G1 X159.131 Y146.673 E28.03154
G1 X158.154 Y147.514 E28.16874
G1 X156.875 Y148.574 E28.34555
G1 X155.52 Y149.646 E28.52944
G1 X153.836 Y150.907 E28.75335
G1 X152.094 Y152.137 E28.98031
G1 X150.641 Y153.108 E29.16631
G1 X149.092 Y154.089 E29.36146
G1 X147.789 Y154.874 E29.52336
G1 X146.009 Y155.889 E29.74145
G1 X144.403 Y156.752 E29.93549
G1 X143.148 Y157.39 E30.08534
G1 X141.826 Y158.03 E30.24166
G1 X140.031 Y158.848 E30.45161
G1 X138.335 Y159.57 E30.6478
G1 X136.684 Y160.227 E30.83692
G1 X134.709 Y160.953 E31.06087
G1 X133.383 Y161.406 E31.21001
G1 X131.864 Y161.89 E31.37969
G1 X129.93 Y162.455 E31.59414
G1 X128.298 Y162.888 E31.77384
G1 X126.768 Y163.258 E31.94138
G1 X124.712 Y163.701 E32.16523
G1 X122.72 Y164.076 E32.38096
G1 X121.3 Y164.309 E32.53412
G1 X119.494 Y164.563 E32.72823
G1 X117.437 Y164.799 E32.94859
G1 X116.328 Y164.902 E33.06714
G1 X114.231 Y165.05 E33.29088
G1 X112.81 Y165.117 E33.44229
G1 X110.762 Y165.166 E33.66032
G1 X108.558 Y165.157 E33.8949
G1 X107.099 Y165.114 E34.05026
G1 X105.404 Y165.029 E34.23089
G1 X103.856 Y164.917 E34.39607
G1 X102.161 Y164.756 E34.57729
G1 X100.004 Y164.497 E34.80851
G1 X98.549 Y164.285 E34.96501
G1 X96.786 Y163.989 E35.15527
G1 X94.853 Y163.614 E35.36484
G1 X92.67 Y163.127 E35.6029
G1 X91.344 Y162.797 E35.74833
G1 X89.633 Y162.332 E35.93704
G1 X87.694 Y161.753 E36.15242
G1 X86.253 Y161.284 E36.31371
G1 X84.607 Y160.709 E36.49928
G1 X83.228 Y160.194 E36.65595
G1 X81.295 Y159.418 E36.87764
G1 X79.672 Y158.718 E37.06576
G1 X78.311 Y158.095 E37.22507
G1 X76.16 Y157.041 E37.48001
G1 X74.812 Y156.336 E37.64192
G1 X72.995 Y155.329 E37.86302
G1 X71.758 Y154.605 E38.01557
G1 X70.003 Y153.522 E38.23506
G1 X68.468 Y152.519 E38.43022
G1 X67.046 Y151.54 E38.61397
G1 X65.575 Y150.475 E38.80726
G1 X64.222 Y149.446 E38.98818
G1 X63.054 Y148.516 E39.14708
G1 X61.668 Y147.362 E39.33904
G1 X60.119 Y146.004 E39.55829
G1 X58.849 Y144.832 E39.74222
G1 X57.971 Y143.99 E39.87169
G1 X56.746 Y142.766 E40.056
G1 X55.318 Y141.265 E40.2765
G1 X53.902 Y139.691 E40.50184
G1 X52.942 Y138.57 E40.65892
G1 X51.843 Y137.23 E40.84337
G1 X50.701 Y135.766 E41.04099
G1 X49.651 Y134.35 E41.22861
G1 X48.494 Y132.704 E41.44275
G1 X47.502 Y131.215 E41.63318
G1 X46.706 Y129.962 E41.79117
G1 X45.628 Y128.171 E42.01366
G1 X44.884 Y126.862 E42.17391
G1 X44.059 Y125.336 E42.35854
G1 X43.234 Y123.718 E42.55184
G1 X42.494 Y122.178 E42.73369
G1 X41.741 Y120.512 E42.92828
G1 X41.072 Y118.933 E43.1108
G1 X40.551 Y117.628 E43.26035
G1 X39.907 Y115.903 E43.45632
G1 X39.217 Y113.899 E43.6819
G1 X38.683 Y112.203 E43.87115
G1 X38.198 Y110.525 E44.05705
G1 X37.741 Y108.789 E44.24811
G1 X37.402 Y107.381 E44.40225
G1 X37.013 Y105.592 E44.59711
G1 X36.574 Y103.253 E44.8504
G1 X36.336 Y101.771 E45.01016
G1 X36.093 Y100.017 E45.19862
G1 X35.871 Y98.049 E45.40941
G1 X35.708 Y96.175 E45.60962
G1 X35.604 Y94.519 E45.78622
G1 X35.542 Y93.012 E45.94674
G1 X35.505 Y90.935 E46.16784
G1 X35.514 Y89.488 E46.32185
G1 X35.567 Y87.643 E46.5183
G1 X35.679 Y85.584 E46.73777
G1 X35.787 Y84.195 E46.88605
G1 X35.964 Y82.421 E47.0758
G1 X36.232 Y80.288 E47.3046
G1 X36.448 Y78.852 E47.45916
G1 X36.743 Y77.147 E47.64332
G1 X37.035 Y75.651 E47.80555
G1 X37.483 Y73.618 E48.02712
G1 X37.834 Y72.189 E48.18373
G1 X38.378 Y70.187 E48.40454
G1 X38.963 Y68.24 E48.62091
G1 X39.352 Y67.044 E48.75477
G1 X40.006 Y65.173 E48.96572
G1 X40.626 Y63.53 E49.15262
G1 X41.127 Y62.272 E49.29674
G1 X42.084 Y59.946 E49.56444
G1 X43.116 Y57.523 E49.84474
G1 X44.088 Y55.313 E50.1017
G1 X44.803 Y53.739 E50.2857
G1 X45.951 Y51.283 E50.57425
G1 X46.752 Y49.623 E50.77042
G1 X47.916 Y47.289 E51.04801
G1 X48.419 Y46.304 E51.16572
G1 X49.553 Y44.139 E51.42584
G1 X50.271 Y42.809 E51.58671
G1 X51.357 Y40.854 E51.82473
G1 X52.173 Y39.431 E51.99932
G1 X53.092 Y37.872 E52.19193
G1 X54.235 Y36.001 E52.42529
G1 X54.724 Y35.223 E52.52309
G0 F6000 X55.47 Y35.541
G1 F1200 X56.239 Y34.348 E52.67416
G1 X57.185 Y32.921 E52.85638
G1 X57.717 Y32.139 E52.95704
G1 X58.648 Y30.804 E53.13027
G1 X59.171 Y30.072 E53.22602
G1 X60.137 Y28.756 E53.39977
G1 X60.66 Y28.06 E53.49243
G1 X61.765 Y26.628 E53.68494
G1 X62.301 Y25.953 E53.77668
G1 X63.288 Y24.738 E53.94328
G1 X64.573 Y23.21 E54.15578
G1 X65.254 Y22.424 E54.26646
G1 X66.337 Y21.205 E54.44001
G1 X67.402 Y20.043 E54.60777
G1 X68.535 Y18.848 E54.78304
G1 X69.843 Y17.514 E54.98188
G1 X70.982 Y16.388 E55.15235
G1 X72.81 Y14.542 E55.42885
G1 X74.538 Y12.697 E55.6979
G1 X76.194 Y10.823 E55.96407
G1 X77.806 Y8.893 E56.23171
G1 X78.445 Y8.08 E56.34177
G1 X79.235 Y7.098 E56.47591
G1 X79.859 Y6.386 E56.57667
G1 X80.541 Y5.73 E56.67739
G1 X81.276 Y5.133 E56.77817
G1 X82.058 Y4.601 E56.87883
G1 X82.882 Y4.136 E56.97953
G1 X83.743 Y3.743 E57.08027
G1 X84.634 Y3.424 E57.18099
G1 X85.549 Y3.181 E57.28175
G1 X86.481 Y3.016 E57.38249
G1 X87.423 Y2.931 E57.48316
G1 X88.239 Y2.921 E57.57001
G1 X88.684 Y2.932 E57.61739
G1 X89.628 Y2.996 E57.71809
G1 X90.661 Y3.158 E57.82938
G1 X91.82 Y3.396 E57.95531
G1 X94.304 Y3.878 E58.22462
G1 X96.837 Y4.294 E58.49783
G1 X99.297 Y4.628 E58.76205
G1 X101.775 Y4.893 E59.02729
G1 X104.31 Y5.091 E59.29792
G1 X106.818 Y5.217 E59.56519
G1 X109.295 Y5.27 E59.82889
G1 X111.849 Y5.253 E60.10072
G1 X114.315 Y5.167 E60.36334
G1 X116.875 Y5.005 E60.63635
G1 X119.325 Y4.781 E60.8982
G1 X121.84 Y4.478 E61.16781
G1 X124.283 Y4.114 E61.4307
G1 X128.114 Y3.404 E61.84538
G1 X129.088 Y3.203 E61.95123
G1 X129.676 Y3.093 E62.0149
G1 X130.614 Y2.965 E62.11566
G1 X131.559 Y2.916 E62.21637
G1 X132.188 Y2.928 E62.28333
G1 X132.57 Y2.946 E62.32404
G1 X133.513 Y3.031 E62.42481
G1 X134.445 Y3.195 E62.52553
G1 X135.36 Y3.436 E62.62623
G1 X136.251 Y3.755 E62.72696
G1 X137.112 Y4.147 E62.82765
G1 X137.937 Y4.61 E62.92834
G1 X138.72 Y5.142 E63.02909
G1 X139.456 Y5.738 E63.12989
G1 X140.138 Y6.394 E63.2306
G1 X140.797 Y7.148 E63.33718
G1 X142.524 Y9.312 E63.63186
G1 X144.153 Y11.235 E63.90009
G1 X145.806 Y13.079 E64.16367
G1 X147.576 Y14.945 E64.4374
G1 X148.919 Y16.292 E64.63985
G1 X150.281 Y17.639 E64.84373
G1 X151.341 Y18.72 E65.00487
G1 X152.469 Y19.906 E65.17907
G1 X153.536 Y21.065 E65.34674
G1 X154.743 Y22.42 E65.53988
G1 X156.04 Y23.93 E65.75174
G1 X156.712 Y24.737 E65.86351
G1 X157.82 Y26.103 E66.05071
G1 X158.804 Y27.358 E66.22044
G1 X159.842 Y28.728 E66.40338
G1 X160.829 Y30.073 E66.58094
G1 X161.94 Y31.643 E66.78565
G1 X162.88 Y33.018 E66.96292
G1 X163.761 Y34.347 E67.13263
G1 X164.602 Y35.653 E67.29796
G1 X165.15 Y36.528 E67.40784
G1 X165.929 Y37.797 E67.56632
G1 X166.736 Y39.15 E67.73399
G1 X167.48 Y40.429 E67.89148
G1 X168.347 Y41.962 E68.07892
G1 X169.111 Y43.346 E68.24718
G1 X170.098 Y45.19 E68.46979
G1 X170.95 Y46.824 E68.66592
G1 X171.35 Y47.608 E68.75959
G1 X172.523 Y49.957 E69.03904
G1 X173.057 Y51.06 E69.16947
G1 X173.994 Y53.042 E69.40281
G1 X175.012 Y55.267 E69.66323
G1 X176.204 Y57.966 E69.97726
G1 X177.132 Y60.146 E70.22943
G1 X178.26 Y62.898 E70.54598
G1 X178.777 Y64.207 E70.69577
G1 X179.36 Y65.773 E70.87362
G1 X179.83 Y67.121 E71.02556
G1 X180.553 Y69.384 E71.27841
G1 X180.952 Y70.753 E71.43018
G1 X181.503 Y72.832 E71.65909
G1 X181.851 Y74.289 E71.81853
G1 X182.204 Y75.924 E71.99655
G1 X182.558 Y77.778 E72.19745
G1 X182.886 Y79.784 E72.41378
G1 X183.119 Y81.478 E72.59578
G1 X183.289 Y82.948 E72.75328
G1 X183.47 Y84.919 E72.96394
G1 X183.567 Y86.334 E73.11489
G1 X183.66 Y88.384 E73.3333
G1 X183.691 Y89.848 E73.48916
G1 X183.69 Y91.597 E73.67531
G1 X183.65 Y93.273 E73.85374
G1 X183.562 Y95.112 E74.04969
G1 X183.433 Y96.891 E74.23953
G1 X183.267 Y98.608 E74.42313
G1 X183.013 Y100.682 E74.64552
G1 X182.808 Y102.079 E74.7958
G1 X182.559 Y103.564 E74.95605
G1 X182.185 Y105.52 E75.16801
G1 X181.809 Y107.244 E75.35581
G1 X181.47 Y108.652 E75.50995
G1 X180.901 Y110.775 E75.74388
G1 X180.317 Y112.731 E75.96114
G1 X179.808 Y114.296 E76.1363
G1 X179.3 Y115.746 E76.29982
G1 X178.712 Y117.316 E76.47826
G1 X178.079 Y118.895 E76.65931
G1 X177.445 Y120.375 E76.83068
G1 X176.755 Y121.896 E77.00844
G1 X175.895 Y123.674 E77.21865
G1 X175.083 Y125.247 E77.40706
G1 X174.369 Y126.558 E77.56595
G1 X173.207 Y128.568 E77.81305
G1 X172.433 Y129.831 E77.97071
G1 X171.601 Y131.127 E78.13462
G1 X170.444 Y132.835 E78.35419
G1 X169.264 Y134.479 E78.56957
G1 X168.569 Y135.405 E78.6928
G1 X167.327 Y136.986 E78.90678
G1 X166.385 Y138.129 E79.06443
G1 X165.093 Y139.622 E79.27457
G1 X163.642 Y141.208 E79.50336
G1 X162.394 Y142.501 E79.69462
G1 X161.172 Y143.707 E79.87735
G1 X160.051 Y144.766 E80.04148
G1 X158.802 Y145.896 E80.22075
G1 X157.632 Y146.907 E80.38532
G1 X156.365 Y147.957 E80.56046
G1 X154.785 Y149.202 E80.77456
G1 X153.121 Y150.438 E80.99518
G1 X151.867 Y151.323 E81.15853
G1 X150.212 Y152.433 E81.37063
G1 X148.679 Y153.404 E81.56376
G1 X147.376 Y154.189 E81.72567
G1 X145.86 Y155.057 E81.9116
G1 X144.263 Y155.922 E82.1049
G1 X142.799 Y156.67 E82.27988
G1 X141.477 Y157.31 E82.4362
G1 X139.954 Y158.007 E82.61447
G1 X138.039 Y158.826 E82.83614
G1 X136.388 Y159.483 E83.02527
G1 X134.451 Y160.196 E83.24495
G1 X133.125 Y160.649 E83.39409
G1 X131.385 Y161.2 E83.58834
G1 X129.997 Y161.606 E83.74226
G1 X127.833 Y162.18 E83.98054
G1 X126.31 Y162.542 E84.14716
G1 X124.271 Y162.974 E84.36899
G1 X122.843 Y163.242 E84.52363
G1 X121.17 Y163.519 E84.70411
G1 X119.401 Y163.768 E84.89425
G1 X117.363 Y164.002 E85.11258
G1 X116.01 Y164.125 E85.25718
G1 X114.193 Y164.251 E85.45103
G1 X112.522 Y164.327 E85.62907
G1 X111.065 Y164.363 E85.78418
G1 X108.888 Y164.362 E86.01589
G1 X106.895 Y164.305 E86.22809
G1 X105.462 Y164.231 E86.38082
G1 X103.914 Y164.119 E86.546
G1 X102.238 Y163.96 E86.72519
G1 X100.399 Y163.742 E86.92229
G1 X98.664 Y163.493 E87.10884
G1 X96.92 Y163.2 E87.29706
G1 X95.007 Y162.829 E87.50446
G1 X93.125 Y162.412 E87.70962
G1 X91.289 Y161.956 E87.91097
G1 X89.844 Y161.561 E88.0704
G1 X87.94 Y160.992 E88.28191
G1 X86.515 Y160.529 E88.44138
G1 X85.126 Y160.046 E88.5979
G1 X83.254 Y159.346 E88.81061
G1 X81.61 Y158.683 E88.99928
G1 X80.005 Y157.991 E89.1853
G1 X78.644 Y157.368 E89.34461
G1 X76.764 Y156.45 E89.56729
G1 X75.199 Y155.636 E89.75504
